X: 23881
T: Lloyd House's Tune
R: reel
M: 4/4
K: Edorian
BEEF GBAG|FDDE FDDA|BEEF GBAG|FAFD E3A|
BEEF GBAG|FDDE FDFA|BEEF GBAG|FAFD E3A||
|:Beef edBc|d2AG (3FAF DF|Beef edBc|dfaf (3ege ed|
Beef edBc|d2AG (3FAF DF|EGED EGAG|FAFD E3A:|

